m/partners/pnr12.svg

<svg width="73" height="44" viewBox="0 0 73 44" fill="none" xmlns="http://www.w3.org/2000/svg">
<path d="M25.1506 38.8839H22.27V27.4686H25.1506V38.8839Z" fill="#2B354E"/>
<path d="M48.3769 30.7392C48.2583 30.679 47.3313 30.1297 45.9535 30.1297C44.0913 30.1297 42.7993 31.4253 42.7993 33.1744C42.7993 34.8706 44.0356 36.222 45.9535 36.222C47.3075 36.222 48.2501 35.6836 48.3769 35.6161V38.68C48.0156 38.7804 47.0311 39.086 45.7519 39.086C42.5119 39.086 39.6678 36.8524 39.6678 33.1736C39.6678 29.7657 42.2409 27.2656 45.7519 27.2656C47.1022 27.2656 48.1041 27.5941 48.3769 27.6753V30.7392ZM18.3099 30.7392C18.194 30.679 17.2679 30.1297 15.8902 30.1297C14.0243 30.1297 12.7332 31.4253 12.7332 33.1744C12.7332 34.8706 13.9704 36.222 15.8902 36.222C17.2442 36.222 18.1858 35.6836 18.3099 35.6161V38.68C17.9522 38.7804 16.9686 39.086 15.6821 39.086C12.4449 39.086 9.60449 36.8524 9.60449 33.1736C9.60449 29.7657 12.1775 27.2656 15.683 27.2656C17.0389 27.2656 18.0389 27.5941 18.3099 27.6753V30.7392ZM57.4381 30.1726C55.7292 30.1726 54.46 31.5175 54.46 33.1744C54.46 34.8351 55.7292 36.1791 57.4381 36.1791C59.1453 36.1791 60.4181 34.8351 60.4181 33.1744C60.4181 31.5175 59.1453 30.1726 57.4381 30.1726ZM63.4702 33.1744C63.4702 36.44 60.9491 39.086 57.4391 39.086C53.9271 39.086 51.4098 36.44 51.4098 33.1736C51.4098 29.9144 53.9281 27.2656 57.4381 27.2656C60.9491 27.2656 63.4702 29.9144 63.4702 33.1744ZM36.0738 30.0631C36.0309 30.0494 34.8183 29.7146 33.822 29.7146C32.6677 29.7146 32.04 30.1014 32.04 30.6498C32.04 31.3451 32.8867 31.5877 33.3603 31.7374L34.155 31.9901C36.0255 32.585 36.8767 33.8652 36.8767 35.2557C36.8767 38.1234 34.3548 39.0869 32.1504 39.0869C30.6185 39.0869 29.1832 38.8041 29.0418 38.7749V36.1471C29.2954 36.211 30.5035 36.5723 31.7617 36.5723C33.1951 36.5723 33.8539 36.1526 33.8539 35.5066C33.8539 34.9281 33.2836 34.5942 32.5692 34.3697C32.3958 34.3113 32.1331 34.2292 31.9542 34.1708C30.3502 33.6635 29.0126 32.7201 29.0126 30.8314C29.0126 28.6963 30.6112 27.2629 33.2663 27.2629C34.6687 27.2629 35.9881 27.6032 36.0738 27.626V30.0622V30.0631Z" fill="#2B354E"/>
<path d="M6.54989 15.2006C6.54989 14.4141 5.90755 13.7763 5.12013 13.7763C4.33271 13.7763 3.68945 14.4141 3.68945 15.1997V18.197C3.69888 18.5701 3.8537 18.9247 4.12089 19.1852C4.38808 19.4457 4.74649 19.5915 5.11968 19.5915C5.49286 19.5915 5.85127 19.4457 6.11846 19.1852C6.38565 18.9247 6.54047 18.5701 6.54989 18.197V15.2006ZM14.4049 11.2681C14.4049 10.8888 14.2542 10.525 13.986 10.2568C13.7178 9.98854 13.354 9.83786 12.9747 9.83786C12.5954 9.83786 12.2316 9.98854 11.9634 10.2568C11.6952 10.525 11.5445 10.8888 11.5445 11.2681V18.197C11.5445 18.5763 11.6952 18.9401 11.9634 19.2083C12.2316 19.4766 12.5954 19.6272 12.9747 19.6272C13.354 19.6272 13.7178 19.4766 13.986 19.2083C14.2542 18.9401 14.4049 18.5763 14.4049 18.197V11.2671V11.2681ZM22.2609 5.88662C22.2609 5.10011 21.6185 4.46141 20.8311 4.46141C20.0428 4.46141 19.4004 5.10011 19.4004 5.88662V21.0446C19.4098 21.4177 19.5647 21.7723 19.8319 22.0329C20.0991 22.2934 20.4575 22.4392 20.8306 22.4392C21.2038 22.4392 21.5622 22.2934 21.8294 22.0329C22.0966 21.7723 22.2514 21.4177 22.2609 21.0446V5.88662ZM30.1159 11.2681C30.1159 10.8888 29.9652 10.525 29.697 10.2568C29.4288 9.98854 29.065 9.83786 28.6857 9.83786C28.3064 9.83786 27.9426 9.98854 27.6744 10.2568C27.4061 10.525 27.2555 10.8888 27.2555 11.2681V18.197C27.2555 18.5763 27.4061 18.9401 27.6744 19.2083C27.9426 19.4766 28.3064 19.6272 28.6857 19.6272C29.065 19.6272 29.4288 19.4766 29.697 19.2083C29.9652 18.9401 30.1159 18.5763 30.1159 18.197V11.2671V11.2681ZM37.9627 15.2006C37.963 14.8233 37.8133 14.4613 37.5468 14.1942C37.2802 13.9271 36.9185 13.7768 36.5412 13.7763C36.163 13.7761 35.8002 13.9258 35.5322 14.1926C35.2642 14.4594 35.1128 14.8215 35.1114 15.1997V18.197C35.1114 18.5751 35.2616 18.9377 35.529 19.2051C35.7963 19.4725 36.1589 19.6227 36.5371 19.6227C36.9152 19.6227 37.2778 19.4725 37.5451 19.2051C37.8125 18.9377 37.9627 18.5751 37.9627 18.197V15.2006ZM45.8214 11.2681C45.812 10.8962 45.6577 10.5427 45.3913 10.283C45.125 10.0234 44.7677 9.87802 44.3957 9.87802C44.0238 9.87802 43.6665 10.0234 43.4001 10.283C43.1338 10.5427 42.9795 10.8962 42.9701 11.2681V18.197C42.9701 18.5751 43.1203 18.9377 43.3876 19.2051C43.655 19.4725 44.0176 19.6227 44.3957 19.6227C44.7738 19.6227 45.1365 19.4725 45.4038 19.2051C45.6712 18.9377 45.8214 18.5751 45.8214 18.197V11.2671V11.2681ZM53.6819 5.88662C53.6819 5.50851 53.5317 5.14589 53.2643 4.87852C52.997 4.61116 52.6343 4.46096 52.2562 4.46096C51.8781 4.46096 51.5155 4.61116 51.2481 4.87852C50.9808 5.14589 50.8306 5.50851 50.8306 5.88662V21.0446C50.8221 21.2371 50.8528 21.4293 50.9206 21.6096C50.9885 21.7899 51.0921 21.9547 51.2253 22.0938C51.3585 22.233 51.5186 22.3438 51.6957 22.4195C51.8729 22.4951 52.0636 22.5342 52.2562 22.5342C52.4489 22.5342 52.6396 22.4951 52.8167 22.4195C52.9939 22.3438 53.1539 22.233 53.2872 22.0938C53.4204 21.9547 53.524 21.7899 53.5919 21.6096C53.6597 21.4293 53.6903 21.2371 53.6819 21.0446V5.88662ZM61.5406 11.2681C61.5406 10.4807 60.9028 9.84104 60.0971 9.84104C59.7191 9.84128 59.3565 9.99162 59.0893 10.259C58.822 10.5265 58.6719 10.8891 58.6719 11.2671V18.197C58.6719 18.9881 59.3106 19.6258 60.0971 19.6258C60.9028 19.6258 61.5406 18.9881 61.5406 18.197V11.2671V11.2681ZM69.3847 15.2006C69.3847 14.8221 69.2343 14.4591 68.9667 14.1915C68.6991 13.9239 68.3361 13.7736 67.9576 13.7736C67.5792 13.7736 67.2162 13.9239 66.9486 14.1915C66.6809 14.4591 66.5306 14.8221 66.5306 15.2006V18.197C66.5306 18.9881 67.1702 19.6267 67.9576 19.6267C68.7441 19.6267 69.3837 18.9881 69.3837 18.197V15.2006H69.3847Z" fill="#2B354E"/>
<path d="M67.7363 37.3796V37.5584H67.2271V38.8823H67.0173V37.5594H66.5063V37.3796H67.7363ZM67.843 37.3796H68.1706L68.6204 38.6123H68.6277L69.0629 37.3805H69.3841V38.8823H69.1697V37.6506H69.1624L68.7062 38.8823H68.5082L68.0629 37.6506H68.0529V38.8823H67.843V37.3796Z" fill="#2B354E"/>
</svg>

<svg xmlns="http://www.w3.org/2000/svg" fill="none" viewBox="0 0 73 44"><path fill="#2B354E" d="M25.15 38.884h-2.88V27.469h2.88v11.415ZM48.377 30.74c-.119-.061-1.046-.61-2.424-.61-1.862 0-3.154 1.295-3.154 3.044 0 1.697 1.237 3.048 3.154 3.048 1.354 0 2.297-.538 2.424-.606v3.064c-.361.1-1.346.406-2.625.406-3.24 0-6.084-2.234-6.084-5.912 0-3.408 2.573-5.908 6.084-5.908 1.35 0 2.352.328 2.625.41v3.063Zm-30.067 0c-.116-.061-1.042-.61-2.42-.61-1.866 0-3.157 1.295-3.157 3.044 0 1.697 1.237 3.048 3.157 3.048 1.354 0 2.296-.538 2.42-.606v3.064c-.358.1-1.341.406-2.628.406-3.237 0-6.078-2.234-6.078-5.912 0-3.408 2.574-5.908 6.079-5.908 1.356 0 2.356.328 2.627.41v3.063Zm39.128-.567c-1.709 0-2.978 1.345-2.978 3.001 0 1.661 1.27 3.005 2.978 3.005 1.707 0 2.98-1.344 2.98-3.005 0-1.657-1.273-3.001-2.98-3.001Zm6.032 3.001c0 3.266-2.52 5.912-6.03 5.912-3.513 0-6.03-2.646-6.03-5.912 0-3.26 2.518-5.908 6.028-5.908 3.511 0 6.032 2.648 6.032 5.908Zm-27.396-3.11c-.043-.015-1.256-.35-2.252-.35-1.154 0-1.782.387-1.782.936 0 .695.847.938 1.32 1.087l.795.253c1.87.595 2.722 1.875 2.722 3.266 0 2.867-2.522 3.83-4.727 3.83-1.531 0-2.967-.282-3.108-.311v-2.628c.253.064 1.461.425 2.72.425 1.433 0 2.092-.42 2.092-1.065 0-.579-.57-.913-1.285-1.137-.173-.059-.436-.14-.615-.2-1.604-.507-2.941-1.45-2.941-3.339 0-2.135 1.598-3.568 4.253-3.568 1.403 0 2.722.34 2.808.363v2.437ZM6.55 15.2c0-.786-.642-1.424-1.43-1.424A1.43 1.43 0 0 0 3.69 15.2v2.997a1.43 1.43 0 0 0 2.86 0v-2.996Zm7.855-3.932a1.43 1.43 0 0 0-2.86 0v6.929a1.43 1.43 0 0 0 2.86 0v-6.93.001Zm7.856-5.381a1.43 1.43 0 0 0-2.86 0v15.158a1.43 1.43 0 0 0 2.86 0V5.887Zm7.855 5.381a1.43 1.43 0 0 0-2.86 0v6.929a1.43 1.43 0 1 0 2.86 0v-6.93.001Zm7.847 3.933a1.423 1.423 0 0 0-2.43-1.008c-.269.266-.42.629-.422 1.007v2.997a1.426 1.426 0 0 0 2.852 0v-2.996Zm7.858-3.933a1.426 1.426 0 0 0-2.85 0v6.929a1.426 1.426 0 0 0 2.85 0v-6.93.001Zm7.86-5.381a1.426 1.426 0 1 0-2.85 0v15.158a1.427 1.427 0 1 0 2.85 0V5.887Zm7.86 5.381a1.43 1.43 0 0 0-1.444-1.427 1.426 1.426 0 0 0-1.425 1.426v6.93c0 .791.639 1.429 1.425 1.429a1.43 1.43 0 0 0 1.444-1.429v-6.93.001Zm7.844 3.933a1.427 1.427 0 0 0-2.854 0v2.996a1.428 1.428 0 1 0 2.853 0v-2.996ZM67.736 37.38v.178h-.509v1.324h-.21V37.56h-.51v-.18h1.23Zm.107 0h.328l.45 1.232h.007l.435-1.232h.321v1.502h-.214v-1.231h-.008l-.456 1.231h-.198l-.445-1.231h-.01v1.231h-.21V37.38Z"/></svg>
